X:0541
T:The York Fancy.
M:C
L:1/8
Q:1/2=104
I: :: :: ::
Z:Jack Campin * www.campin.me.uk * 2009
K:D
ddde cAAc|ddde Tc2de|fdec dBAF|GEEF G2FE::
DDDF EEEF|DDDF  A2d2|DDDF EEEc|dBAF G2FE::
fddf geeg|fafd  cecA|fddf geeg|faAc d2d2:|

